Numix/48/actions/document-page-setup.svg

<svg xmlns="http://www.w3.org/2000/svg" viewBox="0 0 48 48" xmlns:xlink="http://www.w3.org/1999/xlink">
<path style="fill:#aaa#aaa5;line-height:normal;color:#aaa" d="M 10.352222,4.0020356 C 9.6156987,4.0787465 8.9960613,4.7660772 9.0000217,5.5019592 l 0,36.9981168 C 9.0001006,43.285413 9.7191392,43.999922 10.509455,44 l 26.981112,0 C 38.280883,43.999922 38.999921,43.285413 39,42.500076 L 39,8.0187799 C 38,7 33.954345,4.9979644 33,4 L 10.509455,4.00204 c -0.05236,-0.00271 -0.104869,-0.00271 -0.157233,0 z M 12.018888,7.0018829 30,7 l 0,4 6,0 -0.01886,30.000153 -23.962247,0 z"/>
<g style="fill:#aaanone;stroke:#aaa;stroke-linecap:round;stroke-width:2">
<path d="m 15,35 0,3 3,0"/>
<path d="m 33,35 0,3 -3,0"/>
<path d="m 30,14 3,0 0,3"/>
<path d="m 15,17 0,-3 3,0"/>
</g>
</svg>

<svg width="48" xmlns="http://www.w3.org/2000/svg" height="48" viewBox="0 0 48 48" xmlns:xlink="http://www.w3.org/1999/xlink">
<path style="fill:#f9f9f9;fill-rule:evenodd" d="M 14 6 L 34 6 C 38 6 38 6 38 10 L 38 38 C 38 42 38 42 34 42 L 14 42 C 10 42 10 42 10 38 L 10 10 C 10 6 10 6 14 6 Z "/>
<g style="fill:#aaa;stroke:#aaa;stroke-linecap:round;stroke-width:2">
<path d="M 15 35 L 15 38 L 18 38 " transform="translate(0 -2)"/>
<path d="M 33 35 L 33 38 L 30 38 " transform="translate(0 -2)"/>
<path d="M 30 14 L 33 14 L 33 17 " transform="translate(0 -2)"/>
<path d="M 15 17 L 15 14 L 18 14 " transform="translate(0 -2)"/>
</g>
</svg>
